svgs/thin/shelves-empty.svg

<svg xmlns="http://www.w3.org/2000/svg" viewBox="0 0 640 512"><!--! Font Awesome Pro 6.6.0 by @fontawesome - https://fontawesome.com License - https://fontawesome.com/license (Commercial License) Copyright 2024 Fonticons, Inc. --><path d="M16 8c0-4.4-3.6-8-8-8S0 3.6 0 8L0 184 0 440l0 64c0 4.4 3.6 8 8 8s8-3.6 8-8l0-56 608 0 0 56c0 4.4 3.6 8 8 8s8-3.6 8-8l0-64 0-256L640 8c0-4.4-3.6-8-8-8s-8 3.6-8 8l0 168L16 176 16 8zm0 184l608 0 0 240L16 432l0-240z"/></svg>

<svg xmlns="http://www.w3.org/2000/svg" viewBox="0 0 640 512"><!--! Font Awesome Pro 6.4.2 by @fontawesome - https://fontawesome.com License - https://fontawesome.com/license (Commercial License) Copyright 2023 Fonticons, Inc. --><path d="M16 8c0-4.4-3.6-8-8-8S0 3.6 0 8V184 440v64c0 4.4 3.6 8 8 8s8-3.6 8-8V448H624v56c0 4.4 3.6 8 8 8s8-3.6 8-8V440 184 8c0-4.4-3.6-8-8-8s-8 3.6-8 8V176H16V8zm0 184H624V432H16V192z"/></svg>
